X: 161204
T: Patsy the Dub
N: 165
C: BB
Q: 1/8=340
L: 1/8
M: 6/8
R: jig
K: G
"G"DGG dGG|"D"FGA FED|"G"DGG dGG|"Am"ABc "D"d^cd|
"G"DGG dGG|"D"FGA ABc|"G"ded "Am"cAF|"D"AGF "G"G3 :|
"C"gfe "G"dcB|"Am"AcE "D"FED|"Em"EGG BAB|"A"ed^c "D"d2 f|
"G"gfg "D"afd|"Am"cec "G"dBG|"C"EGc "Em"BGE|"D"AFD "G"G3 :|
